packages/react/src/components/base/Icon/assets/icon-test-tube.svg

<svg width="24" height="24" viewBox="0 0 24 24" xmlns="http://www.w3.org/2000/svg" fill="currentColor"> <path d="M22.1712 7.82845L16.5462 2.20345C16.4417 2.09857 16.3175 2.01535 16.1808 1.95857C16.044 1.90179 15.8974 1.87256 15.7494 1.87256C15.6013 1.87256 15.4547 1.90179 15.3179 1.95857C15.1812 2.01535 15.057 2.09857 14.9525 2.20345L2.83905 14.3197C1.98124 15.1775 1.49933 16.3409 1.49933 17.5541C1.49933 18.7672 1.98124 19.9306 2.83905 20.7884C3.69686 21.6463 4.8603 22.1282 6.07343 22.1282C7.28655 22.1282 8.44999 21.6463 9.3078 20.7884L19.7328 10.3578L21.7306 9.69126C21.9126 9.63072 22.0761 9.52466 22.2056 9.38315C22.3351 9.24164 22.4262 9.06937 22.4703 8.88272C22.5145 8.69606 22.5102 8.50122 22.4578 8.3167C22.4055 8.13218 22.3068 7.9641 22.1712 7.82845ZM7.71405 19.1947C7.27314 19.6005 6.69244 19.8202 6.09334 19.8077C5.49424 19.7953 4.92313 19.5518 4.49941 19.1281C4.0757 18.7044 3.83217 18.1333 3.81976 17.5342C3.80734 16.9351 4.027 16.3544 4.4328 15.9134L7.06999 13.2763C7.79468 13.0503 8.90561 12.995 10.3569 13.745C11.0045 14.0897 11.6971 14.3422 12.4147 14.495L7.71405 19.1947ZM18.7691 8.30751C18.6037 8.36297 18.4532 8.45566 18.3294 8.57845L14.6834 12.2253C13.9587 12.4513 12.8478 12.5066 11.3966 11.7566C10.7492 11.412 10.0569 11.1595 9.33968 11.0066L15.7503 4.59313L19.2931 8.13595L18.7691 8.30751Z"/> </svg>

<svg viewBox="0 0 24 24" xmlns="http://www.w3.org/2000/svg" aria-hidden="true" fill="currentColor"><path d="m22.171 7.828-5.625-5.625a1.125 1.125 0 0 0-1.593 0L2.839 14.32a4.574 4.574 0 1 0 6.469 6.468l10.425-10.43 1.998-.667a1.125 1.125 0 0 0 .44-1.863M7.714 19.195a2.322 2.322 0 0 1-3.281-3.282l2.637-2.637c.725-.226 1.836-.281 3.287.469.648.345 1.34.597 2.058.75zM18.77 8.308a1.14 1.14 0 0 0-.44.27l-3.646 3.647c-.724.226-1.835.282-3.286-.468a7.9 7.9 0 0 0-2.057-.75l6.41-6.414 3.543 3.543z"/></svg>
